modules/mod-oauth2/views/img/logo-oauth.svg

<svg xmlns="http://www.w3.org/2000/svg" id="logo-oauth2" enable-background="new 0 0 598.486 671.089" viewBox="0 0 598.486 671.089" height="599.83948" width="598.48541" y="0px" x="0px" version="1.1">
  <defs id="defs104" />
  <g id="g98" transform="translate(0,35.625)">
    <path id="path2" d="M 277.7249,0.87048682 C 410.2899,-8.3215132 498.1879,56.550487 548.4459,135.58949 C 573.6459,175.21949 598.3709,235.40949 598.4849,297.25249 C 598.6069,364.44649 576.8389,422.63549 548.4459,465.33049 C 519.2639,509.21349 481.5199,545.45849 434.2559,569.25749 C 355.2499,609.04049 244.8359,610.12849 172.5149,571.82349 C 91.972897,529.16549 30.046897,468.27849 7.0028967,362.68749 C -2.2191033,320.43149 -3.2791033,265.83249 9.5688967,218.98749 C 12.583897,207.99849 18.062897,196.43349 22.399897,185.62849 C 43.241897,133.70449 78.716897,88.552487 122.4769,57.323487 C 140.0609,44.775487 161.3929,32.295487 180.2139,23.964487 C 203.6319,13.599487 243.0599,3.2734868 277.7249,0.87048682 z" fill="#fff" />
    <path id="path4" d="M 529.1839,304.72449 C 529.1839,430.01249 427.6179,531.57149 302.3319,531.57149 C 177.0459,531.57149 75.481897,430.01249 75.481897,304.72449 C 75.481897,179.43949 177.0459,77.872487 302.3319,77.872487 C 427.6169,77.872487 529.1839,179.43949 529.1839,304.72449 z" fill="#000" />
    <path id="path6" d="M 277.7249,0.87048682 C 410.2899,-8.3215132 498.1879,56.550487 548.4459,135.58949 C 573.6459,175.21949 598.3709,235.40949 598.4849,297.25249 C 598.6069,364.44649 576.8389,422.63549 548.4459,465.33049 C 519.2639,509.21349 481.5199,545.45849 434.2559,569.25749 C 355.2499,609.04049 244.8359,610.12849 172.5149,571.82349 C 91.972897,529.16549 30.046897,468.27849 7.0028967,362.68749 C -2.2191033,320.43149 -3.2791033,265.83249 9.5688967,218.98749 C 12.583897,207.99849 18.062897,196.43349 22.399897,185.62849 C 43.241897,133.70449 78.716897,88.552487 122.4769,57.323487 C 140.0609,44.775487 161.3929,32.295487 180.2139,23.964487 C 203.6319,13.599487 243.0599,3.2734868 277.7249,0.87048682 z M 232.8179,22.682487 C 183.5789,35.448487 147.4759,58.319487 116.0619,82.985487 C 70.762897,118.55349 41.884897,168.18849 24.965897,227.96849 C 6.1428967,294.47649 18.233897,374.95849 44.211897,425.55649 C 71.150897,478.02849 107.3219,518.75949 158.4019,547.44549 C 208.0969,575.35349 277.9929,593.27349 350.8589,579.52149 C 415.5989,567.30349 464.7679,539.10049 504.8239,497.40649 C 558.4159,441.62149 601.4889,338.87249 572.8259,230.53449 C 565.1639,201.57949 555.1469,171.40149 539.4659,145.85349 C 530.9939,132.05149 518.5619,118.47349 506.1069,104.79649 C 459.1009,53.175487 383.1279,8.6924868 285.4229,14.983487 C 266.8289,16.180487 250.4879,18.100487 232.8179,22.682487 z" fill="#000" />
    <g id="hashpattern" style="fill:none;stroke:#fff;stroke-width:2">
      <g id="g36">
        <line id="line8" x1="316.05" y1="576.79" x2="578.188" y2="314.658" />
        <line id="line10" x1="293.134" y1="556.03" x2="556.415" y2="292.754" />
        <line id="line12" x1="270.217" y1="535.273" x2="534.643" y2="270.851" />
        <line id="line14" x1="247.3" y1="514.513" x2="512.87" y2="248.948" />
        <line id="line16" x1="224.384" y1="493.754" x2="491.098" y2="227.044" />
        <line id="line18" x1="201.467" y1="473" x2="469.324" y2="205.141" />
        <line id="line20" x1="178.55" y1="452.236" x2="447.552" y2="183.238" />
        <line id="line22" x1="155.633" y1="431.477" x2="425.778" y2="161.334" />
        <line id="line24" x1="132.716" y1="410.718" x2="404" y2="139.431" />
        <line id="line26" x1="109.8" y1="389.958" x2="382.233" y2="117.528" />
        <line id="line28" x1="86.883" y1="369.2" x2="360.46" y2="95.625" />
        <line id="line30" x1="63.966" y1="348.441" x2="338.688" y2="73.721" />
        <line id="line32" x1="41.049" y1="327.681" x2="316.915" y2="51.818" />
        <line id="line34" x1="18.132" y1="306.922" x2="295.142" y2="29.915" />
      </g>
      <g id="g66">
        <line id="line38" x1="18.043" y1="309.572" x2="285.419" y2="576.96" />
        <line id="line40" x1="39.726" y1="287.579" x2="307.622" y2="555.488" />
        <line id="line42" x1="61.409" y1="265.586" x2="329.825" y2="534.014" />
        <line id="line44" x1="83.092" y1="243.593" x2="352.029" y2="512.542" />
        <line id="line46" x1="104.774" y1="221.6" x2="374.231" y2="491.068" />
        <line id="line48" x1="126.457" y1="199.607" x2="396.436" y2="469.595" />
        <line id="line50" x1="148.14" y1="177.614" x2="418.639" y2="448.122" />
        <line id="line52" x1="169.822" y1="155.621" x2="440.842" y2="426.648" />
        <line id="line54" x1="191.505" y1="133.628" x2="463.046" y2="405.175" />
        <line id="line56" x1="213.188" y1="111.635" x2="485.248" y2="383.7" />
        <line id="line58" x1="234.871" y1="89.642" x2="507.452" y2="362.229" />
        <line id="line60" x1="256.553" y1="67.649" x2="529.655" y2="340.755" />
        <line id="line62" x1="278.236" y1="45.657" x2="551.858" y2="319.283" />
        <line id="line64" x1="299.92" y1="23.664" x2="574.062" y2="297.809" />
      </g>
    </g>
    <path id="path69" d="M 490.7099,106.07949 C 467.1169,82.486487 438.1109,61.226487 403.4629,48.342487 C 367.5489,34.987487 326.9229,23.730487 279.0079,27.813487 C 202.6819,34.319487 149.0919,68.564487 108.3629,108.64549 C 79.834897,136.71849 58.375897,171.11949 44.210897,211.28849 C 23.412897,270.26949 24.674897,339.88649 48.059897,399.89549 C 68.006897,451.08249 100.6549,492.36849 146.8539,524.35049 C 190.2849,554.41749 252.6189,577.73649 322.6299,571.82349 C 407.9019,564.62149 470.2939,520.87349 511.2369,470.46349 C 521.7129,457.56749 532.1289,442.99049 538.1799,425.55749 C 544.1089,412.99649 547.0109,404.45749 549.7279,399.89649 C 561.0999,374.41449 567.1249,347.52849 568.9729,317.78249 C 574.6579,226.29049 539.4559,154.82649 490.7099,106.07949 z M 465.5789,384.82749 C 465.4159,385.17549 465.2699,385.49949 465.0999,385.85849 C 460.8699,397.96349 453.5829,408.08549 446.2589,417.04149 C 417.6249,452.04549 373.9959,482.42349 314.3639,487.42549 C 265.4029,491.52949 221.8119,475.33849 191.4409,454.46049 C 165.0489,436.31749 144.9869,413.85949 130.9189,386.86949 C 130.0609,385.24549 121.8909,366.42249 121.8669,365.59449 C 110.7219,331.02549 109.7549,275.43949 121.1939,242.08249 C 128.8279,219.81949 141.5509,195.73149 158.4019,176.64749 C 181.6679,150.29649 204.9509,133.41149 241.7999,121.47649 C 258.6249,116.02649 273.6869,110.47949 294.4039,109.92949 C 344.9239,108.58449 396.3689,131.26749 423.9909,156.11849 C 449.3749,178.95549 478.3049,223.44049 485.5779,265.17649 C 493.0629,308.13349 485.0749,350.07449 465.5789,384.82749 z" />
    <path id="path71" d="M 377.768,426.033 C 365.328,426.033 354.411,418.155 350.601,406.429 L 336.745,364.211 L 267.43,364.211 L 254.556,406.044 C 250.67,417.998 239.67,426 227.166,426 C 224.164,426 221.182,425.525 218.303,424.591 C 203.357,420.104 194.872,404.017 199.451,388.751 L 257.957,203.428 C 261.756,191.639 272.94,183.416 285.157,183.416 L 316.267,183.416 C 328.553,183.416 339.736,191.499 343.461,203.073 L 404.99,388.327 C 409.91,403.473 401.763,419.732 386.839,424.59 C 383.888,425.548 380.837,426.033 377.768,426.033 L 377.768,426.033 z" fill="#fff" stroke-width="6" stroke="#000" />
    <g fill="#fff" id="OAUTH">
      <g id="g83">
        <path id="path73" d="M 148.001,124.354 L 147.928,124.255 C 140.632,114.256 142.773,100.268 153.518,92.426 C 164.263,84.585 178.066,86.786 185.362,96.784 L 185.435,96.883 C 192.731,106.882 190.59,120.871 179.845,128.712 C 169.1,136.553 155.297,134.353 148.001,124.354 z M 175.658,104.171 L 175.585,104.072 C 171.919,99.048 165.093,97.32 159.771,101.204 C 154.498,105.052 154.088,111.907 157.754,116.932 L 157.827,117.031 C 161.494,122.055 168.319,123.783 173.592,119.935 C 178.915,116.051 179.325,109.196 175.658,104.171 z" />
        <path id="path75" d="M 218.344,58.817 L 229.309,55.299 L 260.048,91.033 L 247.851,94.946 L 242.509,88.576 L 226.676,93.656 L 226.096,101.927 L 214.134,105.765 L 218.344,58.817 z M 236.384,80.775 L 228.066,70.573 L 227.177,83.729 L 236.384,80.775 z" />
        <path id="path77" d="M 279.795,69.567 L 279.891,45.364 L 292.023,45.412 L 291.928,69.369 C 291.903,75.589 295.032,78.557 299.836,78.577 C 304.64,78.596 307.792,75.776 307.815,69.741 L 307.912,45.477 L 320.044,45.525 L 319.949,69.42 C 319.894,83.338 311.926,89.404 299.67,89.355 C 287.415,89.305 279.742,83.054 279.795,69.567 z" />
        <path id="path79" d="M 363.859,65.338 L 351.491,61.563 L 354.547,51.55 L 390.71,62.587 L 387.654,72.6 L 375.286,68.826 L 365.759,100.042 L 354.333,96.555 L 363.859,65.338 z" />
        <path id="path81" d="M 423.012,76.559 L 432.958,83.178 L 424.02,96.61 L 436.786,105.106 L 445.725,91.673 L 455.671,98.292 L 431.788,134.181 L 421.841,127.562 L 430.917,113.924 L 418.15,105.428 L 409.075,119.066 L 399.129,112.447 L 423.012,76.559 z" />
      </g>
      <g id="g95">
        <path id="path85" d="M 458.146,468.883 L 458.222,468.98 C 465.896,478.693 464.29,492.755 453.852,501.001 C 443.414,509.247 429.536,507.575 421.862,497.862 L 421.786,497.765 C 414.112,488.051 415.719,473.99 426.156,465.744 C 436.594,457.499 450.472,459.17 458.146,468.883 z M 431.277,490.11 L 431.353,490.207 C 435.209,495.088 442.096,496.554 447.267,492.469 C 452.389,488.422 452.538,481.556 448.681,476.675 L 448.605,476.578 C 444.75,471.697 437.862,470.231 432.74,474.278 C 427.569,478.363 427.421,485.229 431.277,490.11 z" />
        <path id="path87" d="M 390.707,537.182 L 379.907,541.179 L 347.625,506.833 L 359.638,502.386 L 365.256,508.516 L 380.85,502.744 L 381.065,494.456 L 392.847,490.095 L 390.707,537.182 z M 371.718,516.04 L 380.477,525.865 L 380.786,512.683 L 371.718,516.04 z" />
        <path id="path89" d="M 328.888,528.985 L 329.955,553.164 L 317.835,553.699 L 316.778,529.766 C 316.504,523.552 313.236,520.738 308.437,520.95 C 303.638,521.162 300.625,524.131 300.891,530.16 L 301.961,554.4 L 289.841,554.935 L 288.787,531.064 C 288.173,517.16 295.841,510.718 308.084,510.178 C 320.328,509.637 328.293,515.511 328.888,528.985 z" />
        <path id="path91" d="M 244.671,536.891 L 257.158,540.262 L 254.429,550.37 L 217.918,540.515 L 220.647,530.406 L 233.134,533.777 L 241.641,502.261 L 253.177,505.375 L 244.671,536.891 z" />
        <path id="path93" d="M 185.65,528.108 L 175.401,521.966 L 183.696,508.125 L 170.543,500.241 L 162.248,514.082 L 152,507.94 L 174.164,470.961 L 184.412,477.104 L 175.99,491.156 L 189.144,499.04 L 197.566,484.988 L 207.814,491.131 L 185.65,528.108 z" />
      </g>
    </g>
  </g>
</svg>

<svg xmlns="http://www.w3.org/2000/svg" width="512" height="512" viewBox="0 0 512 512" version="1.1" id="logo-oauth2">
	<g id="g1">
		<g id="g2" transform="matrix(0.73518916,0,0,0.73352953,36.000013,36)">
			<path id="p1" d="M 277.7249,0.87048682 C 410.2899,-8.3215132 498.1879,56.550487 548.4459,135.58949 c 25.2,39.63 49.925,99.82 50.039,161.663 0.122,67.194 -21.646,125.383 -50.039,168.078 -29.182,43.883 -66.926,80.128 -114.19,103.927 -79.006,39.783 -189.42,40.871 -261.741,2.566 -80.542003,-42.658 -142.468003,-103.545 -165.5120033,-209.136 -9.222,-42.256 -10.282,-96.855 2.566,-143.7 3.0150003,-10.989 8.4940003,-22.554 12.8310003,-33.359 20.842,-51.924 56.317,-97.076003 100.077003,-128.305003 17.584,-12.548 38.916,-25.028 57.737,-33.359 23.418,-10.365 62.846,-20.6910002 97.511,-23.09400018 z" fill="#ffffff"/>
			<path id="p2" d="m 529.1839,304.72449 c 0,125.288 -101.566,226.847 -226.852,226.847 -125.286,0 -226.850003,-101.559 -226.850003,-226.847 0,-125.285 101.564003,-226.852003 226.850003,-226.852003 125.285,0 226.852,101.567003 226.852,226.852003 z" fill="#000000"/>
			<path id="p3" d="M 277.7249,0.87048682 C 410.2899,-8.3215132 498.1879,56.550487 548.4459,135.58949 c 25.2,39.63 49.925,99.82 50.039,161.663 0.122,67.194 -21.646,125.383 -50.039,168.078 -29.182,43.883 -66.926,80.128 -114.19,103.927 -79.006,39.783 -189.42,40.871 -261.741,2.566 -80.542003,-42.658 -142.468003,-103.545 -165.5120033,-209.136 -9.222,-42.256 -10.282,-96.855 2.566,-143.7 3.0150003,-10.989 8.4940003,-22.554 12.8310003,-33.359 20.842,-51.924 56.317,-97.076003 100.077003,-128.305003 17.584,-12.548 38.916,-25.028 57.737,-33.359 23.418,-10.365 62.846,-20.6910002 97.511,-23.09400018 z M 232.8179,22.682487 c -49.239,12.766 -85.342,35.637 -116.756,60.303 -45.299003,35.568003 -74.177003,85.203003 -91.096003,144.983003 -18.8230003,66.508 -6.732,146.99 19.246,197.588 26.939,52.472 63.110003,93.203 114.190003,121.889 49.695,27.908 119.591,45.828 192.457,32.076 64.74,-12.218 113.909,-40.421 153.965,-82.115 53.592,-55.785 96.665,-158.534 68.002,-266.872 -7.662,-28.955 -17.679,-59.133 -33.36,-84.681 -8.472,-13.802 -20.904,-27.38 -33.359,-41.057 -47.006,-51.621003 -122.979,-96.1040032 -220.684,-89.813003 -18.594,1.197 -34.935,3.117 -52.605,7.699 z" fill="#000000"/>
			<g id="g3" style="fill:none;stroke:#ffffff;stroke-width:2">
				<g id="g4">
					<line id="l1" x1="316.04999" y1="576.78998" x2="578.18799" y2="314.65799"/>
					<line id="l2" x1="293.134" y1="556.03003" x2="556.41498" y2="292.754"/>
					<line id="l3" x1="270.21701" y1="535.27301" x2="534.64301" y2="270.85101"/>
					<line id="l4" x1="247.3" y1="514.513" x2="512.87" y2="248.948"/>
					<line id="l5" x1="224.384" y1="493.754" x2="491.09799" y2="227.04401"/>
					<line id="l6" x1="201.467" y1="473" x2="469.32401" y2="205.14101"/>
					<line id="l7" x1="178.55" y1="452.23599" x2="447.552" y2="183.23801"/>
					<line id="l8" x1="155.633" y1="431.47699" x2="425.77802" y2="161.334"/>
					<line id="l9" x1="132.716" y1="410.71799" x2="404" y2="139.431"/>
					<line id="l10" x1="109.8" y1="389.95801" x2="382.233" y2="117.528"/>
					<line id="l11" x1="86.883003" y1="369.20001" x2="360.45999" y2="95.625"/>
					<line id="l12" x1="63.966" y1="348.44101" x2="338.68799" y2="73.721001"/>
					<line id="l13" x1="41.049" y1="327.681" x2="316.91501" y2="51.818001"/>
					<line id="l14" x1="18.132" y1="306.922" x2="295.142" y2="29.915001"/>
				</g>
				<g id="g5">
					<line id="l15" x1="18.042999" y1="309.57199" x2="285.41901" y2="576.96002"/>
					<line id="l16" x1="39.726002" y1="287.57901" x2="307.62201" y2="555.48798"/>
					<line id="l17" x1="61.409" y1="265.586" x2="329.82501" y2="534.01398"/>
					<line id="l18" x1="83.092003" y1="243.593" x2="352.02899" y2="512.54199"/>
					<line id="l19" x1="104.774" y1="221.60001" x2="374.23099" y2="491.06799"/>
					<line id="l20" x1="126.457" y1="199.60699" x2="396.436" y2="469.595"/>
					<line id="l21" x1="148.14" y1="177.614" x2="418.63901" y2="448.12201"/>
					<line id="l22" x1="169.82201" y1="155.621" x2="440.84201" y2="426.64801"/>
					<line id="l23" x1="191.505" y1="133.62801" x2="463.04599" y2="405.17499"/>
					<line id="l24" x1="213.188" y1="111.635" x2="485.24799" y2="383.70001"/>
					<line id="l25" x1="234.871" y1="89.641998" x2="507.452" y2="362.229"/>
					<line id="l26" x1="256.55301" y1="67.649002" x2="529.65503" y2="340.755"/>
					<line id="l27" x1="278.23599" y1="45.657001" x2="551.85797" y2="319.28299"/>
					<line id="l28" x1="299.92001" y1="23.664" x2="574.06201" y2="297.80899"/>
				</g>
			</g>
			<path id="p4" d="m 490.7099,106.07949 c -23.593,-23.593003 -52.599,-44.853003 -87.247,-57.737003 -35.914,-13.355 -76.54,-24.612 -124.455,-20.529 -76.326,6.506 -129.916,40.751 -170.645,80.832003 -28.528003,28.073 -49.987003,62.474 -64.152003,102.643 -20.798,58.981 -19.536,128.598 3.849,188.607 19.947,51.187 52.595003,92.473 98.794003,124.455 43.431,30.067 105.765,53.386 175.776,47.473 85.272,-7.202 147.664,-50.95 188.607,-101.36 10.476,-12.896 20.892,-27.473 26.943,-44.906 5.929,-12.561 8.831,-21.1 11.548,-25.661 11.372,-25.482 17.397,-52.368 19.245,-82.114 5.685,-91.492 -29.517,-162.956 -78.263,-211.703 z m -25.131,278.748 c -0.163,0.348 -0.309,0.672 -0.479,1.031 -4.23,12.105 -11.517,22.227 -18.841,31.183 -28.634,35.004 -72.263,65.382 -131.895,70.384 -48.961,4.104 -92.552,-12.087 -122.923,-32.965 -26.392,-18.143 -46.454,-40.601 -60.522,-67.591 -0.858,-1.624 -9.028,-20.447 -9.052,-21.275 -11.145,-34.569 -12.112,-90.155 -0.673,-123.512 7.634,-22.263 20.357,-46.351 37.208,-65.435 23.266,-26.351 46.549,-43.236 83.398,-55.171 16.825,-5.45 31.887,-10.997 52.604,-11.547 50.52,-1.345 101.965,21.338 129.587,46.189 25.384,22.837 54.314,67.322 61.587,109.058 7.485,42.957 -0.503,84.898 -19.999,119.651 z"/>
			<g id="g6" fill="#ffffff">
				<g id="g7">
					<path id="p5" d="m 148.001,124.354 -0.073,-0.099 c -7.296,-9.999 -5.155,-23.987 5.59,-31.829 10.745,-7.841 24.548,-5.64 31.844,4.358 l 0.073,0.099 c 7.296,9.999 5.155,23.988 -5.59,31.829 -10.745,7.841 -24.548,5.641 -31.844,-4.358 z m 27.657,-20.183 -0.073,-0.099 c -3.666,-5.024 -10.492,-6.752 -15.814,-2.868 -5.273,3.848 -5.683,10.703 -2.017,15.728 l 0.073,0.099 c 3.667,5.024 10.492,6.752 15.765,2.904 5.323,-3.884 5.733,-10.739 2.066,-15.764 z"/>
					<path id="p6" d="m 218.344,58.817 10.965,-3.518 30.739,35.734 -12.197,3.913 -5.342,-6.37 -15.833,5.08 -0.58,8.271 -11.962,3.838 z m 18.04,21.958 -8.318,-10.202 -0.889,13.156 z"/>
					<path id="p7" d="m 279.795,69.567 0.096,-24.203 12.132,0.048 -0.095,23.957 c -0.025,6.22 3.104,9.188 7.908,9.208 4.804,0.019 7.956,-2.801 7.979,-8.836 l 0.097,-24.264 12.132,0.048 -0.095,23.895 c -0.055,13.918 -8.023,19.984 -20.279,19.935 -12.255,-0.05 -19.928,-6.301 -19.875,-19.788 z"/>
					<path id="p8" d="m 363.859,65.338 -12.368,-3.775 3.056,-10.013 36.163,11.037 -3.056,10.013 -12.368,-3.774 -9.527,31.216 -11.426,-3.487 z"/>
					<path id="p9" d="m 423.012,76.559 9.946,6.619 -8.938,13.432 12.766,8.496 8.939,-13.433 9.946,6.619 -23.883,35.889 -9.947,-6.619 9.076,-13.638 -12.767,-8.496 -9.075,13.638 -9.946,-6.619 z"/>
				</g>
				<g id="g8">
					<path id="p10" d="m 458.146,468.883 0.076,0.097 c 7.674,9.713 6.068,23.775 -4.37,32.021 -10.438,8.246 -24.316,6.574 -31.99,-3.139 l -0.076,-0.097 c -7.674,-9.714 -6.067,-23.775 4.37,-32.021 10.438,-8.245 24.316,-6.574 31.99,3.139 z m -26.869,21.227 0.076,0.097 c 3.856,4.881 10.743,6.347 15.914,2.262 5.122,-4.047 5.271,-10.913 1.414,-15.794 l -0.076,-0.097 c -3.855,-4.881 -10.743,-6.347 -15.865,-2.3 -5.171,4.085 -5.319,10.951 -1.463,15.832 z"/>
					<path id="p11" d="m 390.707,537.182 -10.8,3.997 -32.282,-34.346 12.013,-4.447 5.618,6.13 15.594,-5.772 0.215,-8.288 11.782,-4.361 z m -18.989,-21.142 8.759,9.825 0.309,-13.182 z"/>
					<path id="p12" d="m 328.888,528.985 1.067,24.179 -12.12,0.535 -1.057,-23.933 c -0.274,-6.214 -3.542,-9.028 -8.341,-8.816 -4.799,0.212 -7.812,3.181 -7.546,9.21 l 1.07,24.24 -12.12,0.535 -1.054,-23.871 c -0.614,-13.904 7.054,-20.346 19.297,-20.886 12.244,-0.541 20.209,5.333 20.804,18.807 z"/>
					<path id="p13" d="m 244.671,536.891 12.487,3.371 -2.729,10.108 -36.511,-9.855 2.729,-10.109 12.487,3.371 8.507,-31.516 11.536,3.114 z"/>
					<path id="p14" d="m 185.65,528.108 -10.249,-6.142 8.295,-13.841 -13.153,-7.884 -8.295,13.841 -10.248,-6.142 22.164,-36.979 10.248,6.143 -8.422,14.052 13.154,7.884 8.422,-14.052 10.248,6.143 z"/>
				</g>
			</g>
		</g>
		<g id="o2" style="fill:#ffffff">
			<path id="p15" d="m 197.37587,306.51742 c -12.11736,0 -18.60271,-8.36268 -18.60271,-19.1147 0,-9.04535 2.04801,-15.36003 11.94669,-54.78411 3.92535,-15.87203 13.82403,-27.13606 28.16006,-27.13606 12.11736,0 18.6027,8.36269 18.6027,19.11471 0,9.04535 -2.048,15.36003 -11.94669,54.78411 -3.92534,15.87203 -13.82402,27.13605 -28.16005,27.13605 z m -2.38934,11.09336 c 44.37342,0 67.92547,-45.05609 67.92547,-79.18949 0,-26.96539 -14.67736,-44.03209 -41.64275,-44.03209 -44.37342,0 -67.92547,45.05609 -67.92547,79.18949 0,26.96539 14.67736,44.03209 41.64275,44.03209 z"/>
			<path id="p16" d="m 358.65623,296.7894 h -59.56279 l 25.94139,-20.99204 c 17.23737,-13.82403 30.37873,-26.62405 30.37873,-46.08009 0,-20.48004 -14.5067,-35.32807 -39.93608,-35.32807 -24.74672,0 -37.71741,13.99469 -42.83742,29.69606 l 19.45604,7.33868 c 2.90134,-9.89869 9.04535,-17.74937 21.50404,-17.74937 11.26402,0 18.0907,6.14401 18.0907,17.40804 v 1.70667 c 0,10.06935 -6.14401,18.43203 -18.77337,29.35472 l -38.22941,32.5974 v 20.82137 h 83.96817 z"/>
		</g>
	</g>
</svg>
